Resources/Public/Icons/software/browser-firefox.svg

<?xml version="1.0" encoding="ISO-8859-1" standalone="no"?>
<!DOCTYPE svg PUBLIC "-//W3C//DTD SVG 1.1//EN" "http://www.w3.org/Graphics/SVG/1.1/DTD/svg11.dtd">
<svg xmlns="http://www.w3.org/2000/svg" xmlns:xlink="http://www.w3.org/1999/xlink" xml:space="preserve" width="16px" height="16px" viewBox="0 0 16 16" zoomAndPan="disable" preserveAspectRatio="xmaxYmax">
<path style="fill:#F99E4C" d="m 13.159758,2.2886847 c -0.04238,-0.041699 -0.08544,-0.0834 -0.1292,-0.1244158 0.04306,0.041016 0.08546,0.082716 0.1292,0.1244158 z M 0.61974675,6.4422561 c 0,0 -0.0218754,0.026661 -0.0546884,0.071095 -0.00478,0.024609 -0.009571,0.048536 -0.0136715,0.073145 0.0205084,-0.057422 0.0437507,-0.1066418 0.0690434,-0.1442401 z M 2.7929204,2.9319551 c 0.014356,-0.014356 0.028028,-0.028711 0.0417,-0.043067 C 3.4895123,2.2339964 4.2524132,1.7192433 5.1014481,1.3603518 5.9805615,0.98847177 6.9143627,0.7997974 7.8775601,0.7997974 c 0.9091913,0 1.7917231,0.16816627 2.6277689,0.4997137 0.488093,0.084083 1.1382,0.2467807 1.680297,0.5550857 -1.21613,-0.86407418 -2.7029669,-1.37130754 -4.3080659,-1.37130754 -2.0808879,0 -3.9628467,0.85382004 -5.3143298,2.22991284 0.062891,0.076564 0.1387715,0.1503926 0.229007,0.2187529 z M 5.4377802,8.534081 C 5.3858267,8.4910138 5.3413925,8.4445292 5.303794,8.3966769 5.290806,8.5033187 5.282602,8.6174806 5.282602,8.7377947 c 0,0.2242217 0.028028,0.4655336 0.1045915,0.7054782 0.076564,0.2399446 0.2009792,0.4771549 0.3971732,0.6979591 0.1305682,0.146974 0.2939493,0.287112 0.4976634,0.413579 l -0.011626,0.01846 c 0.3828167,0.0068 1.0062624,-6.83e-4 1.3220872,-0.105959 0.4751053,-0.158596 1.2359555,-0.76085 1.2359555,-0.76085 0.1900415,-0.1900416 0.4122125,-0.095021 0.6022539,-0.095021 0.1900414,0 0.253616,-0.2850623 0,-0.5708084 C 9.177088,8.7555684 8.289772,8.4698223 7.6239424,8.9141642 6.9581129,9.3585061 6.0072214,9.009185 5.4370966,8.534081 Z M 5.8971613,4.3511146 c -0.042384,0.1579123 -0.079298,0.3582081 -0.079298,0.5762774 0,0.2201201 0.036915,0.4566467 0.1401386,0.6897553 0.082716,0.1866236 0.1613299,0.3240278 0.2324249,0.4340879 0.049909,0.077247 0.09707,0.1415057 0.1408218,0.2002956 C 6.4208031,6.1694982 6.5247089,6.0867826 6.61016,6.0300435 6.8002014,5.9035769 7.5296055,5.5542558 7.6246262,5.459235 7.7196524,5.3642143 7.9096884,4.8569808 7.7510931,4.698385 7.5924963,4.5397891 6.57803,4.6348099 6.2615218,4.5719184 6.1282192,4.5452578 6.0003854,4.4509207 5.8971613,4.3511146 Z m 0.2043972,3.1015066 c 6.834e-4,0.00274 0.00132,0.0041 0.00132,0.0041 0.00132,-0.00274 0.00209,-0.00478 0.00341,-0.00752 l -0.00483,0.00342 z M 15.485376,6.0300435 c 0,0.2577183 -0.232425,0.6186606 -0.277542,0.6863373 0.0096,-0.023926 0.02392,-0.099123 0.02392,-0.3376998 0,-0.3486375 0.09503,-1.2359541 -0.348638,-2.2189751 -0.443657,-0.983021 -1.109487,-1.4581251 -1.109487,-1.4581251 l 0,0.222171 C 13.678609,2.60656 12.791296,2.0043058 12.791296,2.0043058 l 0,0.3171918 c 1.584592,1.4581251 1.743189,2.4725918 1.743189,2.4725918 C 14.249422,3.8746435 13.424997,3.1773685 12.727722,2.5122228 12.030446,1.8470771 10.572321,1.497756 10.572321,1.497756 c 1.553146,0.8873167 2.313996,2.2818667 2.313996,2.2818667 -0.792295,-0.7608501 -1.426678,-0.697275 -1.426678,-0.697275 0.475787,0.3486375 0.697274,0.7287207 1.140933,1.4266792 0.443658,0.6979586 0.412212,2.3454417 0.412212,2.3454417 -0.222171,-0.5386792 -0.665829,-0.76085 -0.665829,-0.76085 0,0 0.09503,0.9508916 0.158596,1.4895708 0.06358,0.538679 -0.222171,1.5531458 -0.222171,1.5531458 0,-0.3800833 -0.222171,-0.4757877 -0.222171,-0.4757877 0,0 0.06358,0.222171 -0.253617,1.2359542 -0.317192,1.0144663 -0.919446,1.3631043 -1.014467,1.3309743 -0.09503,-0.03213 0,-0.190041 0,-0.190041 0,0 -0.158596,-0.126467 -0.380082,0.222171 -0.187308,0.293949 -0.5099682,0.452544 -0.6056724,0.495612 0.1032234,-0.05879 0.1305676,-0.273441 0.1305676,-0.273441 0,0 -0.222171,0.126465 -1.2359538,0.285062 -1.0144674,0.158596 -1.4895709,-0.285062 -1.4895709,-0.285062 0.095026,-0.09503 0.5386792,0 0.5386792,0 0,-0.09503 -0.5072331,-0.253617 -1.0144674,-0.317192 C 6.3244129,11.113314 6.1241173,10.921906 6.0290967,10.768779 5.839055,10.640946 5.6797756,10.500123 5.5471567,10.351782 5.3953968,10.181564 5.2798679,10.000409 5.1937339,9.8165201 5.0207824,9.4487418 4.9654105,9.0713929 4.9654105,8.7377947 c 0,-0.3144573 0.04922,-0.5913165 0.097756,-0.7909286 0.048536,-0.199612 0.098439,-0.3219769 0.1004895,-0.3274458 l 0,0 0.00683,0.00274 C 5.2299649,7.4389491 5.3468609,7.2919745 5.4849488,7.2318175 5.4418818,7.2024225 5.396764,7.1743948 5.3509626,7.1504687 5.1438309,7.039725 4.9093552,6.9939236 4.6789809,7.0322054 4.4479232,7.0684363 4.2264357,7.1832817 4.0302418,7.3336743 3.8415673,7.4779144 3.6911747,7.6829953 3.5927359,7.9085843 3.4936135,8.1355405 3.4437104,8.3864228 3.4437104,8.6379887 c 0,0.2515658 0.04922,0.5051825 0.1408222,0.7437599 0.090919,0.2385775 0.2235382,0.4627992 0.3835013,0.6651454 0.159963,0.202346 0.3472702,0.385552 0.5503003,0.548249 C 4.3064173,10.444067 4.1081725,10.271799 3.9345373,10.074922 3.7609021,9.8780444 3.6125603,9.6572407 3.504551,9.4152452 3.3958582,9.1732497 3.3288651,8.9107462 3.3138258,8.6420903 3.2987866,8.3734343 3.3363848,8.0999931 3.4320892,7.8443256 3.5277936,7.5886582 3.6795534,7.3493971 3.8948883,7.1641407 3.9994796,7.0766396 4.1129576,6.9973416 4.2360063,6.9317157 4.3590548,6.8660898 4.4930409,6.8148196 4.6338631,6.7861083 4.7746853,6.7573971 4.92166,6.7519283 5.0659002,6.7717522 c 0.1442401,0.019825 0.2830116,0.063576 0.4122125,0.1250993 0.129201,0.061524 0.2488315,0.139455 0.358208,0.2276399 0.054688,0.044434 0.1066419,0.091603 0.156545,0.1415057 0.024609,0.02461 0.04922,0.050586 0.073145,0.077247 0.019824,0.022559 0.038282,0.043067 0.058106,0.06836 C 6.236911,7.1190227 6.157609,6.6295631 6.1391597,6.5270225 6.0796833,6.4422561 5.9949166,6.335614 5.8992122,6.1831705 5.8274339,6.0683252 5.7495031,5.9268194 5.6695216,5.7477155 5.5451058,5.4667547 5.5020388,5.1844267 5.5020388,4.9294427 c 0,-0.2980509 0.058107,-0.5598707 0.1155289,-0.7485451 0.017774,-0.058106 0.035547,-0.1093768 0.051954,-0.1531271 C 5.8486256,3.2484632 6.7065473,2.4821443 6.7065473,2.4821443 5.5020388,2.3235484 4.6782973,3.433036 4.6782973,3.433036 c -0.00342,-0.00205 -0.00683,-0.0041 -0.010252,-0.00615 -0.08545,0.094337 -0.375298,0.4334042 -0.4019585,0.7034274 0,0 0.010252,-0.4853581 0.1312517,-0.8244252 -0.4593831,-0.14629 -1.0007967,-0.069726 -1.2776559,-0.012304 l 0.00205,0.010252 C 2.8373546,3.3551053 2.5775855,3.4644817 2.3472113,3.6018859 2.1168372,3.73929 1.9158578,3.9054056 1.750426,4.0660523 1.4202457,4.386662 1.2336221,4.6860801 1.2322549,4.6894981 l 0,0 0,0 -0.00889,-0.00547 C 0.64025485,5.5296462 0.27316009,7.3323071 0.27316009,7.3323071 0.33673513,7.0472446 0.62179759,6.6986072 0.62179759,6.6986072 0.30460587,7.1743948 0.36818091,9.3612405 0.36818091,9.3612405 c 0,-0.3486375 0.19004164,-0.76085 0.19004164,-0.76085 0.0635746,0.7287208 0.38008319,3.0748465 2.44046225,4.8494795 2.0603794,1.774633 3.8035666,1.933911 3.8035666,1.933911 C 6.390039,15.256632 6.2950183,15.06659 6.2950183,15.06659 c 1.3309745,0.538679 2.1554005,0.443658 2.1554005,0.443658 -0.222171,-0.126467 -0.2536171,-0.222171 -0.2536171,-0.222171 1.4266798,0.06358 3.3284633,-0.443658 3.7721203,-0.76085 0.443659,-0.317192 0.824426,-0.950892 0.824426,-0.950892 1.140933,-0.538678 1.933229,-1.648166 2.1554,-2.218975 0.222171,-0.570807 0,-1.173062 0,-1.173062 0,0 0,-0.03145 0.538679,-1.2359536 0.538679,-1.2045083 0,-2.9162502 0,-2.9162502 z M 2.1769942,3.3311792 C 2.3109804,3.2511976 2.4552206,3.1787356 2.6090313,3.1185786 1.9985738,2.6099781 2.046426,1.9407308 2.046426,1.9407308 1.4359686,2.5299965 1.2869431,3.5253224 1.2554975,4.126893 1.2643875,4.116641 1.2725875,4.106385 1.2814745,4.096131 1.4879223,3.858237 1.7893911,3.5629205 2.176994,3.3304955 Z" />
</svg>

<svg xmlns="http://www.w3.org/2000/svg" width="16" height="16" zoomAndPan="disable" preserveAspectRatio="xmaxYmax"><path d="M13.16 2.29c-.043-.043-.086-.085-.13-.126.044.04.086.083.13.125zM.62 6.44l-.055.07-.014.074c.022-.057.045-.106.07-.144zm2.173-3.51l.042-.043C3.49 2.233 4.252 1.72 5.1 1.36 5.98.988 6.915.8 7.88.8c.91 0 1.79.168 2.627.5.488.084 1.14.246 1.68.555C10.97.99 9.484.483 7.88.483c-2.08 0-3.963.854-5.315 2.23.063.077.14.15.23.22zm2.645 5.602c-.052-.043-.097-.09-.134-.137-.013.106-.02.22-.02.34 0 .225.027.466.103.706.077.24.2.477.397.698.13.148.294.288.498.415l-.012.018c.383.007 1.007 0 1.322-.106.476-.158 1.236-.76 1.236-.76.19-.19.413-.096.603-.096s.254-.284 0-.57c-.253-.284-1.14-.57-1.806-.126-.666.445-1.617.095-2.187-.38zm.46-4.183c-.043.16-.08.36-.08.577 0 .22.037.457.14.69.083.187.16.324.232.434.05.078.097.143.14.202.09-.083.195-.165.28-.222.19-.126.92-.476 1.015-.57.095-.096.285-.603.126-.762-.158-.158-1.172-.063-1.488-.126-.134-.027-.262-.12-.365-.22zM6.1 7.454v.004l.004-.008-.005.003zm9.383-1.423c0 .258-.232.62-.277.686.01-.024.024-.1.024-.337 0-.35.095-1.237-.35-2.22-.443-.983-1.108-1.458-1.108-1.458v.222c-.095-.317-.983-.92-.983-.92v.317c1.586 1.46 1.744 2.474 1.744 2.474-.285-.92-1.11-1.617-1.806-2.282-.698-.665-2.156-1.014-2.156-1.014 1.553.887 2.314 2.282 2.314 2.282-.792-.76-1.426-.698-1.426-.698.475.35.697.73 1.14 1.427.444.697.413 2.344.413 2.344-.222-.538-.666-.76-.666-.76s.095.95.16 1.49c.062.538-.224 1.552-.224 1.552 0-.38-.222-.475-.222-.475s.065.223-.252 1.237c-.318 1.014-.92 1.363-1.015 1.33-.095-.032 0-.19 0-.19s-.158-.126-.38.223c-.187.294-.51.452-.606.495.104-.06.13-.273.13-.273s-.22.126-1.235.285c-1.014.158-1.49-.285-1.49-.285.095-.095.54 0 .54 0 0-.095-.508-.254-1.015-.317-.413-.052-.613-.243-.708-.396-.19-.13-.35-.27-.483-.418-.152-.17-.267-.352-.353-.535-.173-.368-.23-.746-.23-1.08 0-.314.05-.59.1-.79.048-.2.098-.322.1-.328l.006.002c.06-.183.177-.33.315-.39-.043-.03-.088-.058-.134-.082-.206-.11-.44-.156-.67-.118-.232.036-.454.15-.65.302-.188.144-.34.35-.437.575-.1.226-.15.476-.15.728s.05.505.142.744c.09.238.223.463.383.665s.347.385.55.548c-.212-.15-.41-.323-.583-.52-.174-.197-.322-.418-.43-.66-.11-.242-.176-.504-.19-.773-.016-.27.02-.542.117-.798.096-.255.248-.495.463-.68.104-.087.218-.167.34-.232.124-.066.258-.117.4-.146.14-.03.287-.034.43-.014.145.02.284.063.413.125.13.06.25.14.358.227.055.045.107.092.157.142.024.025.05.05.073.077.02.023.038.043.058.07.113-.294.034-.783.015-.886-.06-.085-.145-.19-.24-.344-.073-.115-.15-.256-.23-.435-.125-.28-.168-.564-.168-.82 0-.297.058-.558.116-.747.017-.057.035-.108.052-.152.18-.78 1.037-1.546 1.037-1.546-1.205-.158-2.03.95-2.03.95l-.01-.005c-.084.094-.374.433-.4.703 0 0 .01-.485.13-.824-.46-.146-1-.07-1.277-.012l.002.01c-.285.05-.544.16-.775.298-.23.137-.43.303-.597.464-.33.32-.516.62-.518.623l-.01-.006C.64 5.53.273 7.332.273 7.332c.065-.285.35-.633.35-.633-.317.474-.254 2.66-.254 2.66 0-.347.19-.76.19-.76.064.73.38 3.075 2.44 4.85 2.06 1.775 3.804 1.934 3.804 1.934-.412-.127-.507-.317-.507-.317 1.33.538 2.155.443 2.155.443-.222-.126-.253-.222-.253-.222 1.426.064 3.328-.444 3.772-.76.443-.318.823-.952.823-.952 1.14-.538 1.934-1.648 2.156-2.22.22-.57 0-1.172 0-1.172s0-.03.537-1.236c.54-1.204 0-2.916 0-2.916zM2.177 3.33c.134-.08.278-.15.432-.21-.61-.51-.564-1.18-.564-1.18-.61.59-.76 1.585-.79 2.187l.025-.03c.208-.24.51-.534.897-.767z" fill="#F99E4C"/></svg>
